public/icons/card-lilly-club.svg

<svg width="124" height="124" viewBox="0 0 124 124" fill="none" xmlns="http://www.w3.org/2000/svg">
<g clip-path="url(#clip0_87_2026)">
<path d="M61.9912 124C59.8913 124 57.7477 123.913 55.6478 123.694C26.4239 120.676 3.28112 97.5817 0.306238 68.3203C0.0874965 66.2208 0 64.0776 0 61.9781C0 60.0099 0.0874965 57.9979 0.262489 56.0296C0.437482 54.1051 0.74372 52.1369 1.09371 50.2561C2.5374 42.7767 5.33728 35.6473 9.36212 29.2176C11.3308 26.0684 13.6057 23.0942 16.0993 20.3386V52.5305C16.0993 52.9242 16.4056 53.2303 16.7993 53.2303H36.0923C36.4423 53.2741 36.7485 53.0116 36.7923 52.6617V51.612C36.7923 51.437 36.7923 51.2621 36.661 51.1309C36.486 50.9559 36.2673 50.8684 36.0485 50.9122H18.6367V17.6705C24.2803 12.1594 30.8863 7.78554 38.1922 4.72381C41.9108 3.19295 45.7607 2.01199 49.698 1.22469C51.7104 0.831041 53.7228 0.524868 55.779 0.306173C57.8352 0.0874779 59.9351 0 61.9912 0C64.0474 0 66.2348 0.0874779 68.3347 0.306173C97.6023 3.28042 120.701 26.4183 123.676 55.636C124.289 61.5407 124.026 67.4892 122.976 73.3065C122.32 76.9369 121.314 80.4797 120.001 83.9351C120.001 81.9668 119.651 79.9986 118.951 78.1615C117.77 75.0998 115.32 72.7379 112.258 71.6444C110.727 71.1196 109.108 70.8134 107.489 70.8571C106.264 70.8571 105.083 71.0758 103.902 71.4257C103.071 71.6444 102.327 72.0381 101.627 72.4755V59.5725C101.627 59.2663 101.496 58.9601 101.277 58.7414C101.058 58.5228 100.752 58.3915 100.446 58.3478H94.4962C94.1899 58.3478 93.8837 58.479 93.665 58.7414C93.4462 58.9601 93.315 59.2663 93.315 59.5725V95.4822C93.315 96.1383 93.84 96.6631 94.5399 96.7069H96.9898C97.2961 96.7069 97.6023 96.5757 97.7773 96.357C98.0398 96.0945 98.2148 95.7884 98.3023 95.4384L99.0023 93.339C99.1772 93.5577 99.3522 93.7764 99.571 93.9513C101.671 96.0945 104.558 97.2755 107.533 97.2755C108.758 97.2755 109.983 97.1005 111.164 96.7069C112.302 96.357 113.352 95.8321 114.358 95.1323C108.846 103.793 101.277 110.966 92.3088 115.996C83.0779 121.288 72.6221 124 61.9912 124V124ZM66.9785 71.4257C66.6723 71.4257 66.4098 71.557 66.1911 71.7757C65.9723 71.9944 65.8411 72.3005 65.8411 72.6504V85.291C65.8411 89.1838 66.4973 92.0268 67.8973 93.9951C68.641 95.0885 69.6909 95.9196 70.8721 96.4444C71.5284 96.7506 72.2283 96.9693 72.9721 97.1005C73.8033 97.2755 74.6782 97.3192 75.5095 97.3192C76.3844 97.3192 77.3031 97.188 78.1343 96.9256C78.9218 96.7069 79.6655 96.4007 80.3218 95.9633C81.503 95.2635 82.5529 94.4324 83.4716 93.4702L84.3466 95.8321C84.4778 96.0508 84.6091 96.2695 84.8278 96.4444C85.0466 96.6194 85.2653 96.7069 85.5715 96.7069H88.1089C88.7652 96.7069 89.2901 96.182 89.3339 95.4822V72.6067C89.3339 71.9506 88.8527 71.4257 88.1964 71.382H82.4217C82.1154 71.382 81.8092 71.4257 81.503 71.6007C81.1967 71.8194 81.0217 72.213 81.0655 72.6067V85.5097C81.0655 86.0346 81.0217 86.5594 80.8905 87.0843C80.7592 87.5217 80.5842 87.9591 80.278 88.3527C79.6218 89.14 78.6593 89.5337 77.6531 89.4899C77.0844 89.4899 76.5594 89.4025 76.0344 89.2275C75.5969 89.0526 75.247 88.7464 74.9845 88.3965C74.722 88.0028 74.5032 87.5217 74.4157 87.0406C74.2845 86.4282 74.2407 85.7721 74.2407 85.1598V72.6942C74.2407 72.0381 73.7595 71.5132 73.1033 71.4695H71.5284L89.7714 29.0427C89.9464 28.7802 89.9901 28.4741 89.8589 28.2116C89.7714 28.0804 89.5526 27.9929 89.3776 27.9929H88.1527C87.759 27.9929 87.4527 28.2116 87.3215 28.6053L78.0031 50.4748H77.8281L68.9035 28.6053C68.8597 28.4303 68.7285 28.2554 68.5535 28.1242C68.3785 28.0367 68.2035 27.9929 68.0285 27.9929H66.891C66.7161 27.9929 66.5848 28.0367 66.4536 28.1679C66.3223 28.4303 66.3661 28.7802 66.4973 29.0427L76.5594 53.2303L68.6847 71.4257H66.9785V71.4257ZM37.5797 57.8229C36.2235 57.8229 34.9111 57.9541 33.5986 58.2166C25.8552 59.7912 19.8179 65.8709 18.243 73.569C17.718 76.1933 17.718 78.9051 18.243 81.5732C19.5555 87.9153 23.8865 93.2078 29.88 95.7009C31.0612 96.182 32.3299 96.5757 33.5986 96.8381C34.9111 97.1005 36.2673 97.2317 37.5797 97.2317C39.9859 97.2317 42.392 96.7944 44.6669 95.9196C46.9856 95.0011 49.0855 93.6452 50.8792 91.8956C51.0542 91.6769 51.1854 91.4145 51.1854 91.152C51.1854 90.8896 51.0979 90.6272 50.9229 90.4085L46.6356 85.8596C46.4606 85.6409 46.1981 85.5534 45.9356 85.5534C45.6732 85.5534 45.4544 85.6409 45.2357 85.7721C44.7544 86.2095 44.2295 86.5594 43.7045 86.9093C43.1358 87.2155 42.567 87.5217 41.9983 87.7404C41.3858 87.9591 40.7296 88.134 40.0734 88.2653C39.3734 88.3965 38.6734 88.4402 37.9297 88.4402C34.9986 88.4402 32.2424 87.2593 30.23 85.1598C29.7488 84.6349 29.3113 84.11 28.9613 83.4977C28.5676 82.8854 28.2614 82.273 27.9989 81.6169C27.4739 80.261 27.1677 78.7739 27.1677 77.3305C27.1677 75.8871 27.4301 74.3563 27.9551 73.0003C28.2176 72.3443 28.5238 71.6882 28.9176 71.0758C29.3113 70.4635 29.7051 69.9386 30.1863 69.4138C30.6675 68.8889 31.1925 68.4515 31.7612 68.0141C33.5549 66.7457 35.6986 66.0459 37.886 66.0459C38.5422 66.0459 39.1984 66.0896 39.8546 66.2208C41.1671 66.4395 42.4358 66.9206 43.5295 67.5767C44.142 67.9266 44.7107 68.364 45.2357 68.8451C45.5857 69.2388 46.1981 69.2388 46.5919 68.8451L50.8354 64.4275C51.0542 64.2088 51.1417 63.9464 51.1417 63.6402C51.1417 63.334 51.0104 63.0716 50.7479 62.8966C48.998 61.2783 46.9856 59.9661 44.7982 59.0914C42.5233 58.2166 40.0734 57.8229 37.5797 57.8229ZM54.9478 58.3915C54.6415 58.3915 54.3353 58.5227 54.1166 58.7852C53.8978 59.0039 53.7666 59.3101 53.7666 59.6162V95.5259C53.7666 96.182 54.2916 96.7069 54.9915 96.7506H60.8975C61.5538 96.7506 62.0787 96.2257 62.1225 95.5259V59.6162C62.1225 59.5287 62.1225 59.485 62.0787 59.3975L62.21 15.7898C62.21 15.5711 62.1225 15.3524 61.9475 15.2212C61.8163 15.0899 61.5975 15.0025 61.3788 14.9587H60.5913C60.3726 14.9587 60.1538 15.0462 59.9788 15.2212C59.8476 15.3961 59.7601 15.5711 59.7601 15.7898V58.4353H54.9478V58.3915ZM50.5292 14.915C50.3105 14.915 50.0917 15.0025 49.9167 15.1774C49.7855 15.3524 49.698 15.5273 49.698 15.746V52.443C49.698 52.8367 49.873 53.2741 50.398 53.2741H51.2729C51.6667 53.3178 52.0166 53.0554 52.1041 52.6617V15.746C52.1041 15.5273 52.0166 15.3086 51.8417 15.1774C51.7104 15.0462 51.4917 14.9587 51.2729 14.915H50.5292V14.915ZM40.8171 27.9492C40.5984 27.9492 40.3796 28.0367 40.2046 28.2116C40.0734 28.3866 39.9859 28.5616 39.9859 28.7802V52.443C39.9859 52.8367 40.1609 53.2741 40.6859 53.2741H41.5608C41.9546 53.3178 42.3045 53.0554 42.392 52.6617V28.7802C42.392 28.5616 42.3045 28.3429 42.1295 28.2116C41.9983 28.0804 41.7796 27.9929 41.5608 27.9492H40.8171V27.9492ZM41.1233 16.752C40.5546 16.752 39.9859 16.9707 39.5922 17.3644C39.1984 17.758 38.9359 18.3266 38.9359 18.8952C38.9797 20.1199 40.0296 21.0384 41.2546 20.9947C41.7796 20.951 42.2608 20.7323 42.6545 20.3824C43.0483 19.9887 43.267 19.4638 43.267 18.8952C43.267 17.7143 42.3483 16.7958 41.2108 16.752C41.1817 16.752 41.1525 16.752 41.1233 16.752ZM106.396 89.4025C105.652 89.4025 104.908 89.2713 104.252 89.0088C102.983 88.4839 101.933 87.478 101.452 86.2095C101.19 85.5097 101.058 84.8099 101.058 84.0663C101.058 83.3227 101.19 82.6229 101.452 81.9668C101.715 81.3545 102.065 80.7859 102.546 80.3048C103.027 79.8236 103.596 79.4737 104.252 79.2113C104.952 78.9489 105.652 78.8176 106.396 78.8176C107.796 78.7739 109.152 79.3425 110.158 80.3048C110.639 80.7859 111.033 81.3545 111.296 81.9668C111.558 82.6229 111.689 83.3665 111.689 84.0663C111.689 84.8099 111.558 85.5534 111.296 86.2095C111.033 86.8656 110.683 87.4342 110.158 87.9153C109.152 88.8776 107.796 89.4025 106.396 89.4025Z" fill="white"/>
</g>
<defs>
<clipPath id="clip0_87_2026">
<rect width="124" height="124" fill="white"/>
</clipPath>
</defs>
</svg>

<svg xmlns="http://www.w3.org/2000/svg" width="124" height="124" fill="none" xmlns:v="https://vecta.io/nano"><g clip-path="url(#A)"><path d="M61.991 124c-2.1 0-4.243-.087-6.343-.306C26.424 120.676 3.281 97.582.306 68.32.087 66.221 0 64.078 0 61.978c0-1.968.087-3.98.262-5.948.175-1.925.481-3.893.831-5.773 1.444-7.479 4.244-14.609 8.268-21.039 1.969-3.149 4.244-6.123 6.737-8.879v32.192a.69.69 0 0 0 .7.7h19.293c.35.044.656-.219.7-.569v-1.05c0-.175 0-.35-.131-.481-.175-.175-.394-.262-.613-.219H18.637V17.671c5.644-5.511 12.25-9.885 19.556-12.947 3.719-1.531 7.569-2.712 11.506-3.499 2.012-.394 4.025-.7 6.081-.919S59.935 0 61.991 0s4.244.087 6.343.306c29.268 2.974 52.366 26.112 55.341 55.33.613 5.905.35 11.853-.7 17.67-.656 3.63-1.662 7.173-2.975 10.629 0-1.968-.35-3.937-1.05-5.774-1.181-3.062-3.631-5.424-6.693-6.517-1.531-.525-3.15-.831-4.769-.787-1.225 0-2.406.219-3.587.569-.831.219-1.575.612-2.275 1.05V59.573c0-.306-.131-.612-.35-.831a1.48 1.48 0 0 0-.831-.394h-5.95c-.306 0-.612.131-.831.394-.219.219-.35.525-.35.831v35.91c0 .656.525 1.181 1.225 1.225h2.45c.306 0 .612-.131.787-.35.263-.263.438-.569.525-.919l.7-2.099c.175.219.35.437.569.612 2.1 2.143 4.987 3.324 7.962 3.324 1.225 0 2.45-.175 3.631-.569 1.138-.35 2.188-.875 3.194-1.575-5.512 8.661-13.081 15.834-22.049 20.864C83.078 121.288 72.622 124 61.991 124h0zm4.987-52.574c-.306 0-.569.131-.787.35a1.22 1.22 0 0 0-.35.875v12.641c0 3.893.656 6.736 2.056 8.704.744 1.093 1.794 1.925 2.975 2.449a8.39 8.39 0 0 0 2.1.656c.831.175 1.706.219 2.537.219a8.88 8.88 0 0 0 2.625-.394c.788-.219 1.531-.525 2.188-.962a14.66 14.66 0 0 0 3.15-2.493l.875 2.362c.131.219.263.437.481.612s.438.263.744.263h2.537c.656 0 1.181-.525 1.225-1.225V72.607c0-.656-.481-1.181-1.138-1.225h-5.775c-.306 0-.612.044-.919.219a1.1 1.1 0 0 0-.437 1.006V85.51a6.44 6.44 0 0 1-.175 1.575c-.131.437-.306.875-.612 1.268-.656.787-1.619 1.181-2.625 1.137a5.02 5.02 0 0 1-1.619-.262c-.437-.175-.787-.481-1.05-.831-.263-.394-.481-.875-.569-1.356-.131-.612-.175-1.269-.175-1.881V72.694c0-.656-.481-1.181-1.137-1.225h-1.575l18.243-42.427c.175-.262.219-.569.088-.831-.088-.131-.306-.219-.481-.219h-1.225c-.394 0-.7.219-.831.612l-9.318 21.87h-.175l-8.925-21.87c-.044-.175-.175-.35-.35-.481-.175-.087-.35-.131-.525-.131h-1.137a.56.56 0 0 0-.437.175c-.131.262-.087.612.044.875L76.559 53.23l-7.875 18.195h-1.706 0zM37.58 57.823a20.14 20.14 0 0 0-3.981.394c-7.743 1.575-13.781 7.654-15.356 15.352-.525 2.624-.525 5.336 0 8.004 1.313 6.342 5.644 11.635 11.637 14.128 1.181.481 2.45.875 3.719 1.137a20.48 20.48 0 0 0 3.981.394c2.406 0 4.812-.437 7.087-1.312a18.76 18.76 0 0 0 6.212-4.024c.175-.219.306-.481.306-.744s-.087-.525-.263-.743l-4.287-4.549c-.175-.219-.437-.306-.7-.306s-.481.088-.7.219c-.481.437-1.006.787-1.531 1.137-.569.306-1.138.612-1.706.831-.612.219-1.269.394-1.925.525-.7.131-1.4.175-2.144.175-2.931 0-5.687-1.181-7.7-3.28-.481-.525-.919-1.05-1.269-1.662-.394-.612-.7-1.225-.962-1.881-.525-1.356-.831-2.843-.831-4.286s.262-2.974.787-4.33c.262-.656.569-1.312.962-1.924s.788-1.137 1.269-1.662 1.006-.962 1.575-1.4c1.794-1.268 3.937-1.968 6.125-1.968.656 0 1.312.044 1.969.175a10.61 10.61 0 0 1 3.675 1.356c.613.35 1.181.787 1.706 1.268.35.394.962.394 1.356 0l4.243-4.418c.219-.219.306-.481.306-.787a.86.86 0 0 0-.394-.744c-1.75-1.618-3.762-2.931-5.95-3.805-2.275-.875-4.725-1.269-7.218-1.269zm17.368.569c-.306 0-.613.131-.831.394-.219.219-.35.525-.35.831v35.91c0 .656.525 1.181 1.225 1.225h5.906c.656 0 1.181-.525 1.225-1.225v-35.91c0-.087 0-.131-.044-.219l.131-43.608c0-.219-.087-.437-.263-.569-.131-.131-.35-.219-.569-.262h-.788c-.219 0-.437.088-.612.262-.131.175-.219.35-.219.569v42.646h-4.812v-.044zm-4.419-43.476c-.219 0-.437.088-.613.262-.131.175-.219.35-.219.569v36.697c0 .394.175.831.7.831h.875c.394.044.744-.219.831-.612V15.746c0-.219-.088-.437-.262-.569-.131-.131-.35-.219-.569-.262h-.744 0zm-9.712 13.034c-.219 0-.437.087-.613.262-.131.175-.219.35-.219.569v23.663c0 .394.175.831.7.831h.875c.394.044.744-.219.831-.612V28.78c0-.219-.088-.437-.263-.569-.131-.131-.35-.219-.569-.262h-.744 0zm.306-11.197c-.569 0-1.137.219-1.531.612s-.656.962-.656 1.531c.044 1.225 1.094 2.143 2.319 2.1.525-.044 1.006-.262 1.4-.612.394-.394.613-.919.613-1.487a2.13 2.13 0 0 0-2.056-2.143h-.087zm65.273 72.651a5.83 5.83 0 0 1-2.144-.394c-1.269-.525-2.319-1.531-2.8-2.799a6.01 6.01 0 0 1-.394-2.143 5.61 5.61 0 0 1 .394-2.099c.263-.612.613-1.181 1.094-1.662s1.05-.831 1.706-1.094c.7-.262 1.4-.394 2.144-.394 1.4-.044 2.756.525 3.762 1.487.481.481.875 1.05 1.138 1.662.262.656.393 1.4.393 2.099 0 .744-.131 1.487-.393 2.143s-.613 1.225-1.138 1.706c-1.006.962-2.362 1.487-3.762 1.487z" fill="#fff"/></g><defs><clipPath id="A"><path fill="#fff" d="M0 0h124v124H0z"/></clipPath></defs></svg>
